packages/match-icons/product/svg/email-validation.svg

<svg fill="none" height="32" viewBox="0 0 32 32" width="32" xmlns="http://www.w3.org/2000/svg" xmlns:xlink="http://www.w3.org/1999/xlink"><clipPath id="a"><path d="m0 0h32v32h-32z"/></clipPath><g clip-path="url(#a)" fill="#394762"><path d="m31 10.16c-.2652 0-.5196.1054-.7071.2929s-.2929.4419-.2929.7071v13.43l-5.71-5.72c-.0932-.0932-.2039-.1672-.3258-.2177-.1218-.0504-.2523-.0764-.3842-.0764s-.2624.026-.3842.0764c-.1219.0505-.2326.1245-.3258.2177s-.1672.2039-.2177.3258c-.0504.1218-.0764.2523-.0764.3842s.026.2624.0764.3842c.0505.1219.1245.2326.2177.3258l5.72 5.71h-25.18l5.72-5.71c.09324-.0932.1672-.2039.21766-.3258.05046-.1218.07643-.2523.07643-.3842s-.02597-.2624-.07643-.3842c-.05046-.1219-.12442-.2326-.21766-.3258s-.20393-.1672-.32575-.2177c-.12182-.0504-.25239-.0764-.38425-.0764s-.26243.026-.38425.0764c-.12182.0505-.23251.1245-.32575.2177l-5.71 5.72v-17.59c0-.13261.05268-.25979.14645-.35355.09376-.09377.22094-.14645.35355-.14645h22.84c.2652 0 .5196-.10536.7071-.29289.1875-.18754.2929-.44189.2929-.70711s-.1054-.51957-.2929-.70711c-.1875-.18753-.4419-.29289-.7071-.29289h-22.84c-.66304 0-1.29893.26339-1.767767.73223-.468841.46884-.732233 1.10473-.732233 1.76777v18.5c0 .663.263392 1.2989.732233 1.7678.468837.4688 1.104727.7322 1.767767.7322h27c.663 0 1.2989-.2634 1.7678-.7322.4688-.4689.7322-1.1048.7322-1.7678v-14.34c0-.2652-.1054-.5196-.2929-.7071s-.4419-.2929-.7071-.2929z"/><path d="m16 18.88c-.0656.0008-.1306-.0121-.1909-.0379-.0603-.0259-.1145-.064-.1591-.1121l-5.65002-5.62c-.1883-.1883-.4437-.294-.71-.294s-.5217.1057-.71.294-.29409.4437-.29409.71.10579.5217.29409.71l5.62002 5.62c.4703.4678 1.1067.7304 1.77.7304s1.2997-.2626 1.77-.7304l13.26-13.20996c.1883-.1883.2941-.44369.2941-.71 0-.2663-.1058-.52169-.2941-.71-.1883-.1883-.4437-.29409-.71-.29409s-.5217.10579-.71.29409l-13.23 13.20996c-.0447.0481-.0989.0862-.1591.1121-.0603.0258-.1253.0387-.1909.0379z"/></g></svg>

<svg width="32" height="32" viewBox="0 0 32 32" fill="none" xmlns="http://www.w3.org/2000/svg">
<g clip-path="url(#clip0)">
<path d="M31 10.16C30.7348 10.16 30.4804 10.2654 30.2929 10.4529C30.1054 10.6404 30 10.8948 30 11.16V24.59L24.29 18.87C24.1968 18.7768 24.0861 18.7028 23.9642 18.6523C23.8424 18.6019 23.7119 18.5759 23.58 18.5759C23.4481 18.5759 23.3176 18.6019 23.1958 18.6523C23.0739 18.7028 22.9632 18.7768 22.87 18.87C22.7768 18.9632 22.7028 19.0739 22.6523 19.1958C22.6019 19.3176 22.5759 19.4481 22.5759 19.58C22.5759 19.7119 22.6019 19.8424 22.6523 19.9642C22.7028 20.0861 22.7768 20.1968 22.87 20.29L28.59 26H3.41L9.13 20.29C9.22324 20.1968 9.2972 20.0861 9.34766 19.9642C9.39812 19.8424 9.42409 19.7119 9.42409 19.58C9.42409 19.4481 9.39812 19.3176 9.34766 19.1958C9.2972 19.0739 9.22324 18.9632 9.13 18.87C9.03676 18.7768 8.92607 18.7028 8.80425 18.6523C8.68243 18.6019 8.55186 18.5759 8.42 18.5759C8.28814 18.5759 8.15757 18.6019 8.03575 18.6523C7.91393 18.7028 7.80324 18.7768 7.71 18.87L2 24.59V7C2 6.86739 2.05268 6.74021 2.14645 6.64645C2.24021 6.55268 2.36739 6.5 2.5 6.5H25.34C25.6052 6.5 25.8596 6.39464 26.0471 6.20711C26.2346 6.01957 26.34 5.76522 26.34 5.5C26.34 5.23478 26.2346 4.98043 26.0471 4.79289C25.8596 4.60536 25.6052 4.5 25.34 4.5H2.5C1.83696 4.5 1.20107 4.76339 0.732233 5.23223C0.263392 5.70107 0 6.33696 0 7L0 25.5C0 26.163 0.263392 26.7989 0.732233 27.2678C1.20107 27.7366 1.83696 28 2.5 28H29.5C30.163 28 30.7989 27.7366 31.2678 27.2678C31.7366 26.7989 32 26.163 32 25.5V11.16C32 10.8948 31.8946 10.6404 31.7071 10.4529C31.5196 10.2654 31.2652 10.16 31 10.16Z" fill="#394762"/>
<path d="M16 18.88C15.9344 18.8808 15.8694 18.8679 15.8091 18.8421C15.7488 18.8162 15.6946 18.7781 15.65 18.73L9.99998 13.11C9.81168 12.9217 9.55628 12.816 9.28998 12.816C9.02368 12.816 8.76828 12.9217 8.57998 13.11C8.39168 13.2983 8.28589 13.5537 8.28589 13.82C8.28589 14.0863 8.39168 14.3417 8.57998 14.53L14.2 20.15C14.6703 20.6178 15.3067 20.8804 15.97 20.8804C16.6333 20.8804 17.2697 20.6178 17.74 20.15L31 6.94004C31.1883 6.75174 31.2941 6.49635 31.2941 6.23004C31.2941 5.96374 31.1883 5.70835 31 5.52004C30.8117 5.33174 30.5563 5.22595 30.29 5.22595C30.0237 5.22595 29.7683 5.33174 29.58 5.52004L16.35 18.73C16.3053 18.7781 16.2511 18.8162 16.1909 18.8421C16.1306 18.8679 16.0656 18.8808 16 18.88V18.88Z" fill="#394762"/>
</g>
<defs>
<clipPath id="clip0">
<rect width="32" height="32" fill="white"/>
</clipPath>
</defs>
</svg>
